brandFactory_export/3.Masa/Banda ancha_3Masa.svg

<?xml version="1.0" encoding="UTF-8"?>
<svg width="24px" height="24px" viewBox="0 0 24 24" version="1.1" xmlns="http://www.w3.org/2000/svg" xmlns:xlink="http://www.w3.org/1999/xlink">
    <title>3.Masa/Banda ancha_3Masa</title>
    <g id="Symbols" stroke="none" stroke-width="1" fill="none" fill-rule="evenodd">
        <g id="3.Masa/Banda-ancha_3Masa" fill="#5CB615" fill-rule="nonzero">
            <path d="M9.2302521,2.83697479 C8.95798319,2.58487395 8.94453782,2.15798319 9.19663866,1.88571429 C9.4487395,1.61344538 9.87563025,1.6 10.1478992,1.85210084 L10.1647059,1.86890756 C11.0487395,2.72268908 11.4957983,3.97983193 11.4957983,5.60672269 C11.4957983,7.22689076 11.0487395,8.48067227 10.1714286,9.33445378 C9.90588235,9.59327731 9.4789916,9.58655462 9.22016807,9.3210084 C8.96134454,9.05546218 8.96806723,8.62857143 9.23361345,8.3697479 C9.84201681,7.77815126 10.1512605,6.85042017 10.1512605,5.61008403 C10.1512605,4.3697479 9.84201681,3.42857143 9.2302521,2.83697479 L9.2302521,2.83697479 Z M13.4319328,5.60672269 C13.4319328,7.58991597 12.9277311,9.08235294 11.9361345,10.0470588 C11.6672269,10.302521 11.6571429,10.7294118 11.912605,10.9983193 C12.1680672,11.2672269 12.594958,11.2773109 12.8638655,11.0218487 L12.8739496,11.0117647 C14.1378151,9.78487395 14.7798319,7.96638655 14.7798319,5.60672269 C14.7798319,3.24033613 14.1344538,1.41512605 12.8638655,0.188235294 C12.594958,-0.0705882353 12.1714286,-0.0605042017 11.912605,0.205042017 C11.6537815,0.47394958 11.6638655,0.897478992 11.9294118,1.15630252 C12.9243697,2.1210084 13.4319328,3.61680672 13.4319328,5.60672269 L13.4319328,5.60672269 Z M23.6336134,18.0302521 L23.6336134,19.6773109 C23.6336134,20.9109244 23.3008403,21.8789916 22.6453782,22.5613445 C21.9630252,23.2705882 20.9680672,23.6268908 19.6840336,23.6268908 L3.94957983,23.6268908 C2.66554622,23.6268908 1.67058824,23.2672269 0.988235294,22.5613445 C0.332773109,21.8789916 0,20.9109244 0,19.6773109 L0,18.0302521 C0,16.7966387 0.332773109,15.8285714 0.988235294,15.1462185 C1.67058824,14.4369748 2.66554622,14.0806723 3.94957983,14.0806723 L5.56638655,14.0806723 L5.56638655,5.60672269 C5.56638655,5.23697479 5.86890756,4.93445378 6.23865546,4.93445378 C6.60840336,4.93445378 6.91092437,5.23697479 6.91092437,5.60672269 L6.91092437,14.0840336 L19.6806723,14.0840336 C20.9647059,14.0840336 21.9596639,14.4436975 22.6420168,15.1495798 C23.3008403,15.8285714 23.6336134,16.8 23.6336134,18.0302521 L23.6336134,18.0302521 Z M4.75966387,19.8386555 C4.95798319,19.6369748 5.05882353,19.3613445 5.05882353,19.0151261 C5.05882353,18.3159664 4.62184874,17.8823529 3.91932773,17.8823529 C3.21680672,17.8823529 2.77983193,18.3159664 2.77983193,19.0151261 C2.77983193,19.3613445 2.88067227,19.6369748 3.0789916,19.8386555 C3.27731092,20.0403361 3.5697479,20.1478992 3.91932773,20.1478992 C4.26890756,20.1478992 4.55798319,20.0403361 4.75966387,19.8386555 Z M8.04705882,19.8386555 C8.24537815,19.6369748 8.34621849,19.3613445 8.34621849,19.0151261 C8.34621849,18.3159664 7.9092437,17.8823529 7.20672269,17.8823529 C6.50420168,17.8823529 6.06722689,18.3159664 6.06722689,19.0151261 C6.06722689,19.3613445 6.16806723,19.6369748 6.36638655,19.8386555 C6.56470588,20.0403361 6.85714286,20.1478992 7.20672269,20.1478992 C7.55630252,20.1478992 7.8487395,20.0403361 8.04705882,19.8386555 Z" id="Banda-ancha_3Masa"></path>
        </g>
    </g>
</svg>

<svg width="24" height="24" viewBox="0 0 24 24" xmlns="http://www.w3.org/2000/svg"><path d="M9.23 2.837a.674.674 0 01.918-.985l.017.017c.884.854 1.33 2.11 1.33 3.738 0 1.62-.446 2.874-1.324 3.727a.674.674 0 01-.937-.964c.608-.592.917-1.52.917-2.76 0-1.24-.309-2.181-.92-2.773zm4.202 2.77c0 1.983-.504 3.475-1.496 4.44a.674.674 0 00.928.975l.01-.01c1.264-1.227 1.906-3.046 1.906-5.405 0-2.367-.646-4.192-1.916-5.419a.674.674 0 00-.935.968c.995.965 1.503 2.46 1.503 4.45zM23.634 18.03v1.647c0 1.234-.333 2.202-.989 2.884-.682.71-1.677 1.066-2.961 1.066H3.95c-1.284 0-2.28-.36-2.962-1.066C.333 21.88 0 20.911 0 19.677V18.03c0-1.233.333-2.201.988-2.884.683-.709 1.678-1.065 2.962-1.065h1.616V5.607c0-.37.303-.673.673-.673.37 0 .672.303.672.673v8.477h12.77c1.284 0 2.279.36 2.961 1.066.659.679.992 1.65.992 2.88zM4.76 19.84c.198-.202.299-.478.299-.824 0-.699-.437-1.133-1.14-1.133-.702 0-1.14.434-1.14 1.133 0 .346.102.622.3.824.198.201.49.309.84.309s.639-.108.84-.31zm3.287 0c.198-.202.3-.478.3-.824 0-.699-.438-1.133-1.14-1.133-.703 0-1.14.434-1.14 1.133 0 .346.101.622.3.824.198.201.49.309.84.309s.642-.108.84-.31z" fill="#5CB615" fill-rule="nonzero"/></svg>
